X: 1184
T: An Comhra Donn
R: hornpipe
M: 4/4
K: Dmajor
|:FG|ABAG FAde|fgfe dcdA|BcdB AFDE|FEED E2FG|
ABAG FAde|fgfe dcdA|BcdB AFEG|F2D2 D2:|
|:fg|agfd gfec|dcde fdAF|GABG FADF|Efgf eAdf|
agfd gfec|dcde fdAF|GABG FAEG|F2D2 D2:|

